Origami/24x24/apps/rochard.svg

<svg width="24" height="24" version="1" xmlns="http://www.w3.org/2000/svg">
 <rect transform="matrix(0,-1,-1,0,0,0)" x="-22" y="-22" width="20" height="20" rx="1" ry="1" style="fill:#4f4f4f"/>
 <path d="m16 4.5c-3.027301 0-5.318083 1.4749328-6.8007812 3.4492188-1.4826989 1.9742859-2.1992188 4.4355702-2.1992188 6.5507812v6h1 4v-1-5c0-0.916667 0.242183-2.223892 0.863281-3.240234 0.621098-1.016343 1.553386-1.759766 3.136719-1.759766v-1-1-1-1-1zm-1 1.0625v1.0292969c-3.352716 0.5566067-6 3.8505931-6 7.9082031v5h-1v-5c0-1.884788 0.6664297-4.173505 2-5.9492188 1.163294-1.5489833 2.803148-2.7152583 5-2.9882812zm0 2.0429688v1.0039062c-1.380316 0.2826387-2.374456 1.1264179-2.988281 2.130859-0.753902 1.233658-1.011719 2.676433-1.011719 3.759766v5h-1v-5c0-3.557273 2.247331-6.3415311 5-6.8945312z" style="opacity:.2"/>
 <path d="m3 2c-0.554 0-1 0.446-1 1v0.5c0-0.554 0.446-1 1-1h18c0.554 0 1 0.446 1 1v-0.5c0-0.554-0.446-1-1-1h-18z" style="fill:#ffffff;opacity:.1"/>
 <path d="m3 22.5c-0.554 0-1-0.446-1-1v-0.5c0 0.554 0.446 1 1 1h18c0.554 0 1-0.446 1-1v0.5c0 0.554-0.446 1-1 1h-18z" style="opacity:.2"/>
 <rect x="7" y="19" width="5" height="1" style="fill:#ffba40"/>
 <rect transform="rotate(90)" x="5" y="-16" width="4" height="1" style="fill:#ffba40"/>
 <path d="m7.5 20v-6c0-4 2.765076-9.5 8.5-9.5" style="fill:none;stroke:#ffba40"/>
 <path d="m9.5 20v-6c0-4.2175685 3-7.5 6.5-7.5" style="fill:none;stroke:#ffba40"/>
 <path d="m11.5 20v-6c0-2 1-5.5 4.5-5.5" style="fill:none;stroke:#ffba40"/>
</svg>

<svg xmlns="http://www.w3.org/2000/svg" width="24" height="24" version="1">
 <rect style="fill:#4f4f4f" width="20" height="20" x="-22" y="-22" rx="1" ry="1" transform="matrix(0,-1,-1,0,0,0)"/>
 <path style="opacity:0.2" d="M 16,4.5 C 12.972699,4.5 10.681917,5.9749328 9.1992188,7.9492188 7.7165199,9.9235047 7,12.384789 7,14.5 l 0,6 1,0 4,0 0,-1 0,-5 c 0,-0.916667 0.242183,-2.223892 0.863281,-3.240234 C 13.484379,10.243423 14.416667,9.5 16,9.5 l 0,-1 0,-1 0,-1 0,-1 0,-1 z m -1,1.0625 0,1.0292969 C 11.647284,7.1484036 9,10.44239 9,14.5 l 0,5 -1,0 0,-5 C 8,12.615212 8.6664297,10.326495 10,8.5507812 11.163294,7.0017979 12.803148,5.8355229 15,5.5625 Z m 0,2.0429688 0,1.0039062 C 13.619684,8.8920137 12.625544,9.7357929 12.011719,10.740234 11.257817,11.973892 11,13.416667 11,14.5 l 0,5 -1,0 0,-5 c 0,-3.557273 2.247331,-6.3415311 5,-6.8945312 z"/>
 <path style="opacity:0.1;fill:#ffffff" d="M 3,2 C 2.446,2 2,2.446 2,3 l 0,0.5 c 0,-0.554 0.446,-1 1,-1 l 18,0 c 0.554,0 1,0.446 1,1 L 22,3 C 22,2.446 21.554,2 21,2 L 3,2 Z"/>
 <path style="opacity:0.2" d="m 3,22.5 c -0.554,0 -1,-0.446 -1,-1 L 2,21 c 0,0.554 0.446,1 1,1 l 18,0 c 0.554,0 1,-0.446 1,-1 l 0,0.5 c 0,0.554 -0.446,1 -1,1 l -18,0 z"/>
 <rect style="fill:#ffba40" width="5" height="1" x="7" y="19"/>
 <rect style="fill:#ffba40" width="4" height="1" x="5" y="-16" transform="matrix(0,1,-1,0,0,0)"/>
 <path style="fill:none;stroke:#ffba40" d="m 7.5,20 0,-6 c 0,-4 2.765076,-9.5 8.5,-9.5 l 0,0"/>
 <path style="fill:none;stroke:#ffba40" d="m 9.5,20 0,-6 c 0,-4.2175685 3,-7.5 6.5,-7.5 l 0,0"/>
 <path style="fill:none;stroke:#ffba40" d="m 11.5,20 0,-6 c 0,-2 1,-5.5 4.5,-5.5 l 0,0"/>
</svg>
